SVG_Azure_All/Machine Learning Studio Workspace (classic).svg

<?xml version="1.0" encoding="UTF-8" standalone="no"?>
<!-- Generated by Microsoft Visio, SVG Export Machine Learning Studio Workspace (classic).svg Page-1 -->

<svg
   xmlns:dc="http://purl.org/dc/elements/1.1/"
   xmlns:cc="http://creativecommons.org/ns#"
   xmlns:rdf="http://www.w3.org/1999/02/22-rdf-syntax-ns#"
   xmlns:svg="http://www.w3.org/2000/svg"
   xmlns="http://www.w3.org/2000/svg"
   xmlns:sodipodi="http://sodipodi.sourceforge.net/DTD/sodipodi-0.dtd"
   xmlns:inkscape="http://www.inkscape.org/namespaces/inkscape"
   width="0.78240275in"
   height="0.78745395in"
   viewBox="0 0 56.332907 56.696667"
   xml:space="preserve"
   class="st7"
   version="1.1"
   id="svg80"
   sodipodi:docname="Machine Learning Studio Workspace (classic).svg"
   style="font-size:12px;overflow:visible;color-interpolation-filters:sRGB;fill:none;fill-rule:evenodd;stroke-linecap:square;stroke-miterlimit:3"
   inkscape:version="0.92.5 (2060ec1f9f, 2020-04-08)"><metadata
   id="metadata84"><rdf:RDF><cc:Work
       rdf:about=""><dc:format>image/svg+xml</dc:format><dc:type
         rdf:resource="http://purl.org/dc/dcmitype/StillImage" /></cc:Work></rdf:RDF></metadata><sodipodi:namedview
   pagecolor="#ffffff"
   bordercolor="#666666"
   borderopacity="1"
   objecttolerance="10"
   gridtolerance="10"
   guidetolerance="10"
   inkscape:pageopacity="0"
   inkscape:pageshadow="2"
   inkscape:window-width="640"
   inkscape:window-height="480"
   id="namedview82"
   showgrid="false"
   inkscape:zoom="1.4193037"
   inkscape:cx="37.552997"
   inkscape:cy="37.786411"
   inkscape:window-x="0"
   inkscape:window-y="0"
   inkscape:window-maximized="0"
   inkscape:current-layer="svg80" />
	<style
   type="text/css"
   id="style2">
	<![CDATA[
		.st1 {fill:#e6e6e6;stroke:none;stroke-linecap:butt;stroke-width:34}
		.st2 {fill:#5ea0ef;stroke:none;stroke-linecap:butt;stroke-width:34}
		.st3 {fill:#83b9f9;stroke:none;stroke-linecap:butt;stroke-width:34}
		.st4 {fill:#0078d4;stroke:none;stroke-linecap:butt;stroke-width:34}
		.st5 {fill:url(#grad0-22);stroke:none;stroke-linecap:butt;stroke-width:34}
		.st6 {fill:#ffffff;stroke:none;stroke-linecap:butt;stroke-width:34}
		.st7 {fill:none;fill-rule:evenodd;font-size:12px;overflow:visible;stroke-linecap:square;stroke-miterlimit:3}
	]]>
	</style>

	<defs
   id="Patterns_And_Gradients">
		<linearGradient
   id="grad0-22"
   x1="0.36503545"
   y1="90.170272"
   x2="35.391688"
   y2="90.170272"
   gradientTransform="scale(1.0039045,0.99611073)"
   gradientUnits="userSpaceOnUse">
			<stop
   offset="0"
   stop-color="#32d4f5"
   stop-opacity="1"
   id="stop4" />
			<stop
   offset="0.32"
   stop-color="#31d1f3"
   stop-opacity="1"
   id="stop6" />
			<stop
   offset="0.53"
   stop-color="#2ec9eb"
   stop-opacity="1"
   id="stop8" />
			<stop
   offset="0.7"
   stop-color="#29bade"
   stop-opacity="1"
   id="stop10" />
			<stop
   offset="0.86"
   stop-color="#22a5cb"
   stop-opacity="1"
   id="stop12" />
			<stop
   offset="1"
   stop-color="#198ab3"
   stop-opacity="1"
   id="stop14" />
			<stop
   offset="1"
   stop-color="#198ab3"
   stop-opacity="1"
   id="stop16" />
		</linearGradient>
	</defs>
	<g
   id="g78"
   transform="translate(-34.001843,-33.997634)">
		<title
   id="title20">Page-1</title>
		<g
   id="group3301-1"
   transform="translate(33.6353,-34.0157)">
			<title
   id="title22">Machine Learning Studio Workspace (classic)</title>
			<g
   id="group3302-2">
				<title
   id="title24">Icon-machinelearning-167</title>
				<g
   id="shape3303-3"
   transform="translate(17.309,-25.4106)">
					<title
   id="title26">Sheet.3303</title>
					<path
   d="m 1.26,93.43 h 36.8 a 1.22454,1.24859 0 0 1 1.26,1.14 v 28.99 a 1.19144,1.21485 0 0 1 -1.26,1.15 H 1.26 A 1.19144,1.21485 0 0 1 0,123.56 V 94.57 a 1.22454,1.24859 0 0 1 1.26,-1.14 z"
   class="st1"
   id="path28"
   inkscape:connector-curvature="0"
   style="fill:#e6e6e6;stroke:none;stroke-width:34;stroke-linecap:butt" />
				</g>
				<g
   id="shape3304-5"
   transform="translate(17.1767,-51.2261)">
					<title
   id="title31">Sheet.3304</title>
					<path
   d="m 1.19,119.24 h 37.07 a 1.15835,1.1811 0 0 1 1.19,1.08 v 4.39 H 0 v -4.39 a 1.15835,1.1811 0 0 1 1.19,-1.08 z"
   class="st2"
   id="path33"
   inkscape:connector-curvature="0"
   style="fill:#5ea0ef;stroke:none;stroke-width:34;stroke-linecap:butt" />
				</g>
				<g
   id="shape3305-7"
   transform="translate(17.1767,-38.3015)">
					<title
   id="title36">Sheet.3305</title>
					<rect
   x="0"
   y="111.785"
   width="13.1721"
   height="12.9246"
   class="st3"
   id="rect38"
   style="fill:#83b9f9;stroke:none;stroke-width:34;stroke-linecap:butt" />
				</g>
				<g
   id="shape3306-9"
   transform="translate(30.2826,-38.3015)">
					<title
   id="title41">Sheet.3306</title>
					<rect
   x="0"
   y="111.785"
   width="13.1721"
   height="12.9246"
   class="st4"
   id="rect43"
   style="fill:#0078d4;stroke:none;stroke-width:34;stroke-linecap:butt" />
				</g>
				<g
   id="shape3307-11"
   transform="translate(43.4546,-38.3015)">
					<title
   id="title46">Sheet.3307</title>
					<rect
   x="0"
   y="111.785"
   width="13.1721"
   height="12.9246"
   class="st3"
   id="rect48"
   style="fill:#83b9f9;stroke:none;stroke-width:34;stroke-linecap:butt" />
				</g>
				<g
   id="shape3308-13"
   transform="translate(43.4546,-25.2756)">
					<title
   id="title51">Sheet.3308</title>
					<path
   d="M 11.29,124.71 H 0 v -13.06 h 13.24 v 11 a 1.88645,1.92351 0 0 1 -1.95,2.06 z"
   class="st4"
   id="path53"
   inkscape:connector-curvature="0"
   style="fill:#0078d4;stroke:none;stroke-width:34;stroke-linecap:butt" />
				</g>
				<g
   id="shape3309-15"
   transform="translate(30.3818,-25.4106)">
					<title
   id="title56">Sheet.3309</title>
					<rect
   x="0"
   y="111.785"
   width="13.1721"
   height="12.9246"
   class="st3"
   id="rect58"
   style="fill:#83b9f9;stroke:none;stroke-width:34;stroke-linecap:butt" />
				</g>
				<g
   id="shape3310-17"
   transform="translate(17.2098,-25.4106)">
					<title
   id="title61">Sheet.3310</title>
					<rect
   x="0"
   y="111.785"
   width="13.1721"
   height="12.9246"
   class="st4"
   id="rect63"
   style="fill:#0078d4;stroke:none;stroke-width:34;stroke-linecap:butt" />
				</g>
				<g
   id="shape3311-19">
					<title
   id="title66">Sheet.3311</title>
					<path
   d="M 34.22,124.71 H 1.65 c -1.02,0 -1.65,-1.69 -1.05,-2.57 l 11.22,-16.87 a 1.12525,1.14736 -180 0 0 0.13,-0.57 V 93.66 A 0.661914,0.674916 -180 0 0 11.420469,92.985084 L 10.79,92.99 A 1.29073,1.31609 0 0 1 9.5,91.67 V 91.1 a 1.29073,1.31609 0 0 1 1.29,-1.28 h 14.4 a 1.25764,1.28234 0 0 1 1.29,1.28 v 0.61 a 1.25764,1.28234 0 0 1 -1.29,1.28 h -0.7 a 0.661914,0.674916 -180 0 0 -0.661914,0.64117 L 23.83,104.7 a 1.35692,1.38358 -180 0 0 0.23,0.74 l 11.25,16.67 c 0.57,0.91 -0.03,2.6 -1.09,2.6 z"
   class="st5"
   id="path68"
   inkscape:connector-curvature="0"
   style="fill:url(#grad0-22);stroke:none;stroke-width:34;stroke-linecap:butt" />
				</g>
				<g
   id="shape3312-23"
   transform="translate(5.88125,-3.57705)">
					<title
   id="title71">Sheet.3312</title>
					<path
   d="m 0.08,123.56 8.14,-12.11 a 2.84623,2.90214 -180 0 0 0.53,-1.72 v -5.07 a 0.959775,0.978628 0 0 1 0.959775,-0.97863 L 14.34,103.69 a 0.926679,0.944882 0 0 1 0.926679,0.97863 L 15.27,110.06 a 1.98574,2.02475 -180 0 0 0.36,1.15 l 8.34,12.35 a 0.695009,0.708661 0 0 1 -0.595722,1.14736 L 0.64,124.71 a 0.695009,0.708661 0 0 1 -0.562627,-1.14736 z"
   class="st6"
   id="path73"
   inkscape:connector-curvature="0"
   style="fill:#ffffff;stroke:none;stroke-width:34;stroke-linecap:butt" />
				</g>
			</g>
		</g>
	</g>
</svg>

<?xml version="1.0" encoding="UTF-8" standalone="no"?>
<!DOCTYPE svg PUBLIC "-//W3C//DTD SVG 1.1//EN" "http://www.w3.org/Graphics/SVG/1.1/DTD/svg11.dtd">
<!-- Generated by Microsoft Visio, SVG Export Machine Learning Studio Workspace (classic).svg Page-1 -->
<svg xmlns="http://www.w3.org/2000/svg" xmlns:xlink="http://www.w3.org/1999/xlink" xmlns:ev="http://www.w3.org/2001/xml-events"
		width="1.72685in" height="1.73207in" viewBox="0 0 124.333 124.709" xml:space="preserve" color-interpolation-filters="sRGB"
		class="st7">
	<style type="text/css">
	<![CDATA[
		.st1 {fill:#e6e6e6;stroke:none;stroke-linecap:butt;stroke-width:34}
		.st2 {fill:#5ea0ef;stroke:none;stroke-linecap:butt;stroke-width:34}
		.st3 {fill:#83b9f9;stroke:none;stroke-linecap:butt;stroke-width:34}
		.st4 {fill:#0078d4;stroke:none;stroke-linecap:butt;stroke-width:34}
		.st5 {fill:url(#grad0-22);stroke:none;stroke-linecap:butt;stroke-width:34}
		.st6 {fill:#ffffff;stroke:none;stroke-linecap:butt;stroke-width:34}
		.st7 {fill:none;fill-rule:evenodd;font-size:12px;overflow:visible;stroke-linecap:square;stroke-miterlimit:3}
	]]>
	</style>

	<defs id="Patterns_And_Gradients">
		<linearGradient id="grad0-22" x1="0" y1="0" x2="1" y2="0" gradientTransform="rotate(89.420845508255 0.5 0.5)">
			<stop offset="0" stop-color="#32d4f5" stop-opacity="1"/>
			<stop offset="0.32" stop-color="#31d1f3" stop-opacity="1"/>
			<stop offset="0.53" stop-color="#2ec9eb" stop-opacity="1"/>
			<stop offset="0.7" stop-color="#29bade" stop-opacity="1"/>
			<stop offset="0.86" stop-color="#22a5cb" stop-opacity="1"/>
			<stop offset="1" stop-color="#198ab3" stop-opacity="1"/>
			<stop offset="1" stop-color="#198ab3" stop-opacity="1"/>
		</linearGradient>
	</defs>
	<g>
		<title>Page-1</title>
		<g id="group3249-1" transform="translate(33.6353,-34.0157)">
			<title>Machine Learning Studio Workspace (classic)</title>
			<g id="group3250-2">
				<title>Icon-machinelearning-167</title>
				<g id="shape3251-3" transform="translate(17.309,-25.4106)">
					<title>Sheet.3251</title>
					<path d="M1.26 93.43 L38.06 93.43 A1.22454 1.24859 0 0 1 39.32 94.57 L39.32 123.56 A1.19144 1.21485 0 0 1 38.06
								 124.71 L1.26 124.71 A1.19144 1.21485 0 0 1 -0 123.56 L0 94.57 A1.22454 1.24859 0 0 1 1.26 93.43
								 Z" class="st1"/>
				</g>
				<g id="shape3252-5" transform="translate(17.1767,-51.2261)">
					<title>Sheet.3252</title>
					<path d="M1.19 119.24 L38.26 119.24 A1.15835 1.1811 0 0 1 39.45 120.32 L39.45 124.71 L0 124.71 L0 120.32 A1.15835
								 1.1811 0 0 1 1.19 119.24 Z" class="st2"/>
				</g>
				<g id="shape3253-7" transform="translate(17.1767,-38.3015)">
					<title>Sheet.3253</title>
					<rect x="0" y="111.785" width="13.1721" height="12.9246" class="st3"/>
				</g>
				<g id="shape3254-9" transform="translate(30.2826,-38.3015)">
					<title>Sheet.3254</title>
					<rect x="0" y="111.785" width="13.1721" height="12.9246" class="st4"/>
				</g>
				<g id="shape3255-11" transform="translate(43.4546,-38.3015)">
					<title>Sheet.3255</title>
					<rect x="0" y="111.785" width="13.1721" height="12.9246" class="st3"/>
				</g>
				<g id="shape3256-13" transform="translate(43.4546,-25.2756)">
					<title>Sheet.3256</title>
					<path d="M11.29 124.71 L0 124.71 L0 111.65 L13.24 111.65 L13.24 122.65 A1.88645 1.92351 0 0 1 11.29 124.71 Z"
							class="st4"/>
				</g>
				<g id="shape3257-15" transform="translate(30.3818,-25.4106)">
					<title>Sheet.3257</title>
					<rect x="0" y="111.785" width="13.1721" height="12.9246" class="st3"/>
				</g>
				<g id="shape3258-17" transform="translate(17.2098,-25.4106)">
					<title>Sheet.3258</title>
					<rect x="0" y="111.785" width="13.1721" height="12.9246" class="st4"/>
				</g>
				<g id="shape3259-19">
					<title>Sheet.3259</title>
					<path d="M34.22 124.71 L1.65 124.71 C0.63 124.71 0 123.02 0.6 122.14 L11.82 105.27 A1.12525 1.14736 -180 0 0
								 11.95 104.7 L11.95 93.66 a0.661914 0.674916 -180 0 0 -0.529531 -0.674916 L10.79 92.99 A1.29073 1.31609
								 0 0 1 9.5 91.67 L9.5 91.1 A1.29073 1.31609 0 0 1 10.79 89.82 L25.19 89.82 A1.25764 1.28234 0 0 1
								 26.48 91.1 L26.48 91.71 A1.25764 1.28234 0 0 1 25.19 92.99 L24.49 92.99 a0.661914 0.674916 -180
								 0 0 -0.661914 0.64117 L23.83 104.7 A1.35692 1.38358 -180 0 0 24.06 105.44 L35.31 122.11 C35.88 123.02
								 35.28 124.71 34.22 124.71 Z" class="st5"/>
				</g>
				<g id="shape3260-23" transform="translate(5.88125,-3.57705)">
					<title>Sheet.3260</title>
					<path d="M0.08 123.56 L8.22 111.45 A2.84623 2.90214 -180 0 0 8.75 109.73 L8.75 104.66 a0.959775 0.978628 0 0
								 1 0.959775 -0.978628 L14.34 103.69 a0.926679 0.944882 0 0 1 0.926679 0.978628 L15.27 110.06 A1.98574
								 2.02475 -180 0 0 15.63 111.21 L23.97 123.56 a0.695009 0.708661 0 0 1 -0.595722 1.14736 L0.64 124.71
								 a0.695009 0.708661 0 0 1 -0.562627 -1.14736 Z" class="st6"/>
				</g>
			</g>
		</g>
	</g>
</svg>
